X: 1
T: Newfoundland
M: 4/4
L: 1/8
R: reel
K: Dmaj
|: DEFA DEFA | D2 GFEd cA | Eg (3fed Ad B2 | B2 ad Af f2 |f2 fg/f/ ed e2 |
ABce Ag (3fed | A/d/B/d/  AF E2 DE | FAdA BAGg |f/e/d/A/ EA  D2 DA :|
f2 fa  (3fed dd | e2 e/f/g/e/  (3fed dA | BGGA F/G/F/E/ DA |
G/A/B/c/ d/B/c/d/ A/B/c/d/  e/f/g/e/ | f2 fa (3fed dd | g2 g/e/f/g/  (3fed dA |
G/A/B/c/  d/B/c/d/  A/B/c/d/ e/f/g/e/ | f/e/d/e/  f/g/a/f/ b/g/a/f/ g/f/d/f//g//  |
a/f/g/d/   B/d/d/B/ A/B/G/A/ F/G/E/F/ | D4 D4 ||
|: DEFA DEFA | D2 GFEd cA | Eg (3fed fa b2 | b2 af Af f2 |f2 fg/f/ ed e2 |
ABce Ag (3fed | A/d/B/d/  AF E2 DE | FAdA BAGg |f/e/d/A/ EA  D2  DA :|
|:f2 fa  (3fed dd | e2 e/f/g/e/  (3fed dA | BGGA F/G/F/E/ DA |
G/A/B/c/ d/B/c/d/ A/B/c/d/  e/f/g/e/ | f2 fa (3fed dd | g2 g/e/f/g/  (3fed dA |
G/A/B/c/  d/B/c/d/  A/B/c/d/ e/f/g/e/ | f/e/d/e/  f/g/a/f/ b/g/a/f/ g/f/d/f//g//  |
a/f/g/d/   A/d/d/B/ A/B/d/B/  A/B/e/B/ | e/B/A/B/   G/A/F/G/   E4 E4 ||
